X: 1
T: Sweet Nothings
C: Pete Cryer
M: 4/4
L: 1/8
R: Hornpipe
K: Dmaj
(3def | g>a g>f .g>d B>G | (3ded c>B A3 B |\
c>A .d>A c>A .d>e | (3fed c>d B2 (3def |
g>a g>e .g>d B>D | (3GBd e>d f3 e | \
d>A .e>A d>A  .e>g | (3fed A>B G2 :|
(3BAG | A>B A>B c>B (3cBA | (3Bcd B>c d3 ^c |\
d>e A>^c d>e (3fed | (3^cde .f>e (3d^c_c B>c |
d>g a>g d>g f>e | (3ded c>d A3 B | \
c>A .d>A c>A .D>e | (3fed A>B D2 :|
